!!!COM: Anonymous
!!!CDT: [?]
!!!OTL: Nie opuszczaj mnie 
!!!TXO: Polish
!!!ODT: 
!!!GTL: Hymnbook E
!!!ARL: Opactwo św. Wojciecha, Staniątki 
!!!voices:	3
**kern	**kern	**text	**kern	**text
*staff3	*staff2	*staff2	*staff1	*staff1
*I"Basso	*I"Canto II	*	*I"Canto I	*
=1-	=1-	=1-	=1-	=1-
*clefF4	*clefG2	*	*clefG2	*
*k[b-]	*k[b-]	*	*k[b-]	*
*met(c|)	*met(c|)	*	*met(c|)	*
*M2/2	*M2/2	*	*M2/2	*
2.G	2.b-	Nie	2.dd	Nie
4D	4f#	o-	4a	o-
=2	=2	=2	=2	=2
4C	4a	-pusz-	4cc	-pusz-
8GL	8g	-czaj	8b-	-czaj
8GJ	8g	mnie	8b-	mnie
4.D	4.g	z~o-	4.a	z~o-
8D	8f#	-pie-	8a	-pie-
=3	=3	=3	=3	=3
4GG	4g	-ki	4g	-ki
2GG	2d	Je-	2g	Je-
4GG	4d	-zu	4d	-zu
=4	=4	=4	=4	=4
4BBn	4d	m&oacute;j	4f	m&oacute;j
4C	4c	na	4e-	na
2GG	4c	wie-	2d	wie-
.	4Bn	.	.	.
=5	=5	=5	=5	=5
4C	4c	-ki	4c	-ki
2C	2e	Je-	2cc	Je-
4C	4e	-zu	4g	-zu
=6	=6	=6	=6	=6
4.C	4.e	m&oacute;j	2.cc	m&oacute;j
8D	8f#	.	.	.
2E-	[2g	na	.	.
.	.	.	4b-	na
=7	=7	=7	=7	=7
1D	2g]	.	1a	wie-
.	2f#	wie-	.	.
=8	=8	=8	=8	=8
1GG	1g	-ki	1g	-ki
=9	=9	=9	=9	=9
*M3/2	*M3/2	*	*M3/2	*
2E-	2g	Bo	2b-	Bo
2D	2a	jak	2cc	jak
2D	2bn	na	2dd	na
=10	=10	=10	=10	=10
1C	1cc	nie-	1ee-	nie-
4D	2b-	-bie	2dd	-bie
4E	.	.	.	.
=11	=11	=11	=11	=11
2.F	2.a	błys-	2.cc	błys-
4D	4b-	-ka-	4dd	-ka-
2E-	2g	-nie	2b-	-nie
=12	=12	=12	=12	=12
2C	2cc	wnet	2ee-	wnet
1G	2.cc	zgi-	1dd	zgi-
.	4bn	.	.	.
=13	=13	=13	=13	=13
1.C	1.cc	-nie	1.cc	-nie
=14	=14	=14	=14	=14
2C	2cc	Tak	2ee-	Tak
4D	2b-	mnie	2dd	mnie
4E	.	.	.	.
2F	2a	bez	2cc	bez
=15	=15	=15	=15	=15
1BB-	1b-	Cie-	1dd	Cie-
2BB-	2b-	-bie	2dd	-bie
=16	=16	=16	=16	=16
2.F	2.a	wszel-	2.cc	wszel-
4D	4b-	-kie	4dd	-kie
2E-	2g	dob-	2b-	dob-
=17	=17	=17	=17	=17
2C	2g	-ro	2cc	-ro
1D	2.g	mi-	1a	mi-
.	4f#	.	.	.
=18	=18	=18	=18	=18
1.GG	1.g	-nie.	1.g	-nie.
==	==	==	==	==
*-	*-	*-	*-	*-
!!!GTL: Hymnbook E
!!!EFL: 80/117
!!!YEM: Creative Commons CC/BY/NC/SA 4.0
!!!ENC: Marcin Konik
!!!END: 
!!!EED: Marcin Konik
!!!EEV: 
!!!ONB: Translated from MusicXML and edited by Marcin Konik
!!!CharacterEncoding: utf-8
!!!RDF**kern: l=long note in original notation
!!!RDF**kern: i=editorial accidental
!!muse2ps: z14jc180F
